64x64/apps/gtk-redshift.svg

<svg xmlns="http://www.w3.org/2000/svg" width="64" height="64" version="1">
 <path style="fill:#e74c3c" d="m 32.0001,6.000319 c -9.387944,0 -16.9997,7.626555 -16.9997,17.033899 -0.0348,5.10197 4.469974,9.559944 6.537762,14.413915 0.921994,2.163988 2.615984,6.551962 2.615984,6.551962 l 15.692108,0 c 0,0 1.69355,-4.388574 2.615384,-6.551762 2.067988,-4.853971 6.447962,-9.367944 6.537962,-14.413915 0,-9.407344 -7.611955,-17.033899 -16.9999,-17.033899 z"/>
 <path style="fill:#4f4f4f" d="m 39.846054,44.000095 -2.615985,11.399933 c -0.321998,1.403991 -1.165993,2.599984 -2.613984,2.599984 l -5.230769,0 c -1.448912,0 -2.311787,-1.191553 -2.615385,-2.599984 L 24.153946,44.000095 Z"/>
 <path style="opacity:0.2;fill:#f4f4f7" d="m 24.668143,46.000083 0.445998,1.999988 13.771919,0 0.445997,-1.999988 -14.663914,0 z m 0.893995,3.999976 0.445998,1.999989 11.983929,0 0.445997,-1.999989 -12.875924,0 z m 0.895995,3.999977 0.311998,1.397992 c 0.046,0.211998 0.127999,0.403997 0.197999,0.601996 l 10.059941,0 c 0.072,-0.197999 0.155999,-0.389998 0.201998,-0.601996 l 0.311999,-1.397992 -11.083935,0 z"/>
 <path style="opacity:0.2;fill:#f4f4f7" d="M 31.998788,6 C 22.611513,6 15,13.627821 15,23.035894 c -0.0011,0.165969 0.01656,0.329149 0.02539,0.494106 0.268634,-9.172617 7.756012,-16.5300713 16.9734,-16.5300713 9.150229,0 16.592563,7.2516973 16.963634,16.3308663 0.01512,-0.09763 0.03314,-0.195257 0.03515,-0.294901 C 48.997576,13.627821 41.386064,6 31.998788,6 Z"/>
 <path style="opacity:0.2" d="m 48.970703,23.449219 c -0.312055,4.877716 -4.496681,9.279464 -6.509765,14 C 41.540944,39.611206 39.847656,44 39.847656,44 l -15.695312,0 c 0,0 -1.691334,-4.388794 -2.611328,-6.550781 -1.99921,-4.689814 -6.262193,-9.01358 -6.517578,-13.900391 C 15.013852,23.710821 15,23.872059 15,24.037109 c -0.0348,5.09997 4.471828,9.558138 6.541016,14.41211 C 22.46101,40.611206 24.152344,45 24.152344,45 l 15.695312,0 c 0,0 1.693288,-4.388794 2.613282,-6.550781 C 44.530926,33.595247 48.91,29.081079 49,24.037109 c 0,-0.198726 -0.0201,-0.391642 -0.0293,-0.58789 z"/>
 <path style="opacity:0.2" d="m 24.152344,45 2.617187,11.398438 C 27.073529,57.806429 27.934821,59 29.382812,59 l 5.234376,0 c 1.447991,0 2.291283,-1.197571 2.613281,-2.601562 L 39.847656,45 39.617188,45 37.230469,55.398438 C 36.908471,56.802429 36.065179,58 34.617188,58 l -5.234376,0 c -1.447991,0 -2.309283,-1.193571 -2.613281,-2.601562 L 24.382812,45 24.152344,45 Z"/>
</svg>

<svg xmlns="http://www.w3.org/2000/svg" width="64" height="64" version="1"><path style="fill:#e74c3c" d="M32 6c-9.388 0-17 7.627-17 17.034-.034 5.102 4.47 9.56 6.538 14.414C22.46 39.612 24.154 44 24.154 44h15.692s1.694-4.388 2.616-6.552C44.53 32.594 48.91 28.08 49 23.034c0-9.407-7.612-17.033-17-17.033z"/><path style="fill:#4f4f4f" d="M39.846 44 37.23 55.4c-.322 1.404-1.166 2.6-2.614 2.6h-5.23c-1.45 0-2.312-1.192-2.616-2.6L24.154 44z"/><path style="opacity:.2;fill:#f4f4f7" d="m24.668 46 .446 2h13.772l.446-2H24.668zm.894 4 .446 2h11.984l.446-2H25.562zm.896 4 .312 1.398c.046.212.128.404.198.602h10.06c.072-.198.156-.39.202-.602L37.542 54H26.458zM31.999 6C22.612 6 15 13.628 15 23.036c-.001.166.017.329.025.494C15.294 14.357 22.781 7 32 7c9.15 0 16.592 7.252 16.963 16.33.016-.097.034-.194.036-.294 0-9.408-7.612-17.036-17-17.036z"/><path style="opacity:.2" d="M48.97 23.45c-.311 4.877-4.496 9.279-6.51 14-.92 2.161-2.612 6.55-2.612 6.55H24.152s-1.691-4.389-2.611-6.55c-2-4.69-6.262-9.014-6.518-13.901-.01.162-.023.323-.023.488-.035 5.1 4.472 9.558 6.541 14.412.92 2.162 2.611 6.551 2.611 6.551h15.696s1.693-4.389 2.613-6.55C44.53 33.594 48.91 29.08 49 24.036c0-.199-.02-.392-.03-.588z"/><path style="opacity:.2" d="m24.152 45 2.618 11.398C27.074 57.806 27.935 59 29.383 59h5.234c1.448 0 2.291-1.198 2.613-2.602L39.848 45h-.23L37.23 55.398C36.908 56.802 36.065 58 34.617 58h-5.234c-1.448 0-2.31-1.194-2.613-2.602L24.383 45h-.23z"/></svg>
